X:1
T:Fourth Measure of the Buffins, A Fragment
M:C
L:1/8
N:Ancestral to "Will Ye go to Sherrifmuir?"
S:The Skene Manuscript (c. 1615)
B:Dauney - Ancient Scottish Melodies (1838, No. 82, p. 250)
Z:AK/Fiddler's Companion
K:D
[A2a2] ag fgaf|g2 gf efge|[d2f2] De defd|[c2e2] A,d cdec|
[Aa]bag [Df]gaf|[Gg]agf efge|[d2f2]ed [A,c]dec|[D2d2]e2[D2d2][D2d2]||

